src/pos-icons/cricket.svg

<svg height="24" viewBox="0 0 24 24" width="24" xmlns="http://www.w3.org/2000/svg"><path d="m14.34 17.77 1.41-1.41 4.25 4.22-1.44 1.42zm4.16-15.77a3.5 3.5 0 0 1 3.5 3.5 3.5 3.5 0 0 1 -3.5 3.5 3.5 3.5 0 0 1 -3.5-3.5 3.5 3.5 0 0 1 3.5-3.5m-16.26 5.11 2.83-2.83c.39-.39 1.02-.39 1.43 0l8.47 8.49c.39.39.39 1.02 0 1.41l-2.83 2.82c-.39.4-1.02.4-1.42 0l-8.48-8.47c-.39-.4-.39-1.03 0-1.42z"/></svg>

<?xml version="1.0" encoding="UTF-8"?><!DOCTYPE svg PUBLIC "-//W3C//DTD SVG 1.1//EN" "http://www.w3.org/Graphics/SVG/1.1/DTD/svg11.dtd"><svg xmlns="http://www.w3.org/2000/svg" xmlns:xlink="http://www.w3.org/1999/xlink" version="1.1" id="mdi-cricket" width="24" height="24" viewBox="0 0 24 24"><path d="M14.34,17.77L15.75,16.36L20,20.58L18.56,22L14.34,17.77M18.5,2A3.5,3.5 0 0,1 22,5.5A3.5,3.5 0 0,1 18.5,9A3.5,3.5 0 0,1 15,5.5A3.5,3.5 0 0,1 18.5,2M2.24,7.11L5.07,4.28C5.46,3.89 6.09,3.89 6.5,4.28L14.97,12.77C15.36,13.16 15.36,13.79 14.97,14.18L12.14,17C11.75,17.4 11.12,17.4 10.72,17L2.24,8.53C1.85,8.13 1.85,7.5 2.24,7.11Z" /></svg>
